build/img/icon-category/icon-category-2.svg

<svg width="24" height="26" viewBox="0 0 24 26" fill="none" xmlns="http://www.w3.org/2000/svg">
<path d="M12.0005 19.545V24.9991" stroke="#2C8ECC" stroke-width="2" stroke-miterlimit="10"/>
<path d="M6.52686 24.9991H17.4747" stroke="#2C8ECC" stroke-width="2" stroke-miterlimit="10"/>
<path d="M18.5693 10.8182H17.9619C18.3381 10.1742 18.5693 9.4354 18.5693 8.63659C18.5693 6.22678 16.6087 4.27331 14.1902 4.27331C14.1715 4.27331 14.1542 4.27857 14.1356 4.27877C13.8703 2.42829 12.289 1.00085 10.3584 1.00085C8.24222 1.00085 6.52666 2.71019 6.52666 4.81872C6.52666 5.18897 6.59623 5.53976 6.69492 5.87831C5.29951 6.60782 4.33709 8.0483 4.33709 9.72741C4.33709 10.1421 4.41367 10.5352 4.52212 10.9152C2.54069 11.3329 1.05273 13.0829 1.05273 15.1815C1.05273 17.5912 3.01331 19.5448 5.43188 19.5448H18.5693C20.9879 19.5448 22.9485 17.5912 22.9485 15.1815C22.9485 12.7717 20.9879 10.8182 18.5693 10.8182Z" stroke="#2C8ECC" stroke-width="2" stroke-miterlimit="10" stroke-linecap="square"/>
</svg>

<svg width="24" height="26" fill="none" xmlns="http://www.w3.org/2000/svg"><path d="M12 19.545v5.454M6.527 25h10.948" stroke="#2C8ECC" stroke-width="2" stroke-miterlimit="10"/><path d="M18.57 10.818h-.608a4.307 4.307 0 00.607-2.181c0-2.41-1.96-4.364-4.379-4.364-.018 0-.036.006-.054.006A3.816 3.816 0 0010.358 1a3.825 3.825 0 00-3.831 3.818c0 .37.07.72.168 1.06-1.395.729-2.358 2.17-2.358 3.848 0 .415.077.808.185 1.188a4.367 4.367 0 00-3.47 4.267c0 2.41 1.961 4.363 4.38 4.363h13.137a4.371 4.371 0 004.38-4.364c0-2.41-1.961-4.363-4.38-4.363z" stroke="#2C8ECC" stroke-width="2" stroke-miterlimit="10" stroke-linecap="square"/></svg>
